svgs/thin/user-unlock.svg

<svg xmlns="http://www.w3.org/2000/svg" viewBox="0 0 640 512"><!--! Font Awesome Pro 6.6.0 by @fontawesome - https://fontawesome.com License - https://fontawesome.com/license (Commercial License) Copyright 2024 Fonticons, Inc. --><path d="M112 128a112 112 0 1 1 224 0 112 112 0 1 1 -224 0zM16 482.3C16 392.7 88.7 320 178.3 320l91.4 0c44.6 0 85 18 114.3 47.1l0-15.1c0-2.1 .1-4.2 .3-6.3c-31-26-71-41.7-114.6-41.7l-91.4 0C79.8 304 0 383.8 0 482.3C0 498.7 13.3 512 29.7 512l362.8 0c-2.9-5-5.1-10.3-6.5-16L29.7 496c-7.6 0-13.7-6.1-13.7-13.7zM224 256A128 128 0 1 0 224 0a128 128 0 1 0 0 256zm256 0c0-26.5 21.5-48 48-48s48 21.5 48 48l0 16 16 0 0-16c0-35.3-28.7-64-64-64s-64 28.7-64 64l0 64-16 0c-17.7 0-32 14.3-32 32l0 128c0 17.7 14.3 32 32 32l160 0c17.7 0 32-14.3 32-32l0-128c0-17.7-14.3-32-32-32l-16 0-16 0-64 0-32 0 0-64zm-16 80l16 0 96 0 16 0 16 0c8.8 0 16 7.2 16 16l0 128c0 8.8-7.2 16-16 16l-160 0c-8.8 0-16-7.2-16-16l0-128c0-8.8 7.2-16 16-16l16 0z"/></svg>

<svg xmlns="http://www.w3.org/2000/svg" viewBox="0 0 640 512"><!--! Font Awesome Pro 6.4.0 by @fontawesome - https://fontawesome.com License - https://fontawesome.com/license (Commercial License) Copyright 2023 Fonticons, Inc. --><path d="M112 128a112 112 0 1 1 224 0 112 112 0 1 1 -224 0zM16 482.3C16 392.7 88.7 320 178.3 320h91.4c44.6 0 85 18 114.3 47.1V352c0-2.1 .1-4.2 .3-6.3c-31-26-71-41.7-114.6-41.7H178.3C79.8 304 0 383.8 0 482.3C0 498.7 13.3 512 29.7 512H392.6c-2.9-5-5.1-10.3-6.5-16H29.7c-7.6 0-13.7-6.1-13.7-13.7zM224 256A128 128 0 1 0 224 0a128 128 0 1 0 0 256zm256 0c0-26.5 21.5-48 48-48s48 21.5 48 48v16h16V256c0-35.3-28.7-64-64-64s-64 28.7-64 64v64H448c-17.7 0-32 14.3-32 32V480c0 17.7 14.3 32 32 32H608c17.7 0 32-14.3 32-32V352c0-17.7-14.3-32-32-32H592 576 512 480V256zm-16 80h16 96 16 16c8.8 0 16 7.2 16 16V480c0 8.8-7.2 16-16 16H448c-8.8 0-16-7.2-16-16V352c0-8.8 7.2-16 16-16h16z"/></svg>
